assets/images/icons/src/dashcube.svg

<?xml version="1.0" encoding="utf-8"?>
<!-- Generated by IcoMoon.io -->
<!DOCTYPE svg PUBLIC "-//W3C//DTD SVG 1.1//EN" "http://www.w3.org/Graphics/SVG/1.1/DTD/svg11.dtd">
<svg version="1.1" xmlns="http://www.w3.org/2000/svg" xmlns:xlink="http://www.w3.org/1999/xlink" width="11" height="14" viewBox="0 0 11 14">
<path fill="#444444" d="M0 5.312q0-1.023 0.715-1.77t1.738-0.746h5.797l2.75-2.797v11.484q0 1.031-0.715 1.773t-1.738 0.742h-6.094q-1.023 0-1.738-0.742t-0.715-1.773v-6.172zM9.625 11.203l-1.375-1.406v-3.32q0-0.359-0.25-0.617t-0.609-0.258h-3.781q-0.359 0-0.609 0.258t-0.25 0.617v3.844q0 0.359 0.254 0.621t0.605 0.262h6.016z"></path>
</svg>

<svg xmlns="http://www.w3.org/2000/svg" width="11" height="14" viewBox="0 0 11 14"><path fill="#444" d="M0 5.312q0-1.023.715-1.77t1.738-.746H8.25L11-.001v11.484q0 1.031-.715 1.773t-1.738.742H2.453q-1.023 0-1.738-.742T0 11.483V5.311zm9.625 5.891L8.25 9.797v-3.32q0-.359-.25-.617t-.609-.258H3.61q-.359 0-.609.258t-.25.617v3.844q0 .359.254.621t.605.262h6.016z"/></svg>
